X:1
T:May thy Spirit rest upon us
T:Gasparini
T:Swinyard
T:May thy Spirit rest upon us
C:Gasparini
Z:Swinyard
%%score [ 1 2 3 4 ]
L:1/8
M:4/4
K:Eb
V:1 treble nm="S" snm="S."
V:2 treble nm="A" snm="A."
V:3 treble-8 transpose=-12 nm="T" snm="T."
V:4 bass nm="B" snm="B."
V:1
!p! z2 G2- GG c2- | c2 B4 A2 | G6 F2 | (F2 =E2) F2 A2 | A2 A2 G4- | G2 (FE) F2 ^F2 | G4 z4 | z8 | %8
w: May * thy Spi-|* * rit|rest up-|on * us, and|give us grace|* to * fol- low|thee,||
!mf! z8 | c4 dedc | =BG (c4 B2) | c4 z4 | z4 d4 | efed c4- | c2 B2 =A4 |!f! G2 G2 GGcB | %16
w: |that we in all our|ways may serve *|thee,|that|we in all our ways|* may serve|thee, and glo- ri- fy thy|
 A2 =A2 B4- | B4 z2 (E2 | F2) (GA) (Bc) d2- | d2 (c=B c2) c2 |"^dim." =B4 G4 | A4 G2 (G2- | %22
w: Ho- ly name,|* glo-|* ri- * fy * thy|* Ho- * * ly|name, and|at the last|
 GAGF E3) E | D4!p! D4 | C8 |] %25
w: * * * * * de-|serve thy|peace.|
V:2
!p! E4 =E4 | (FAGF) =E2 (F2- | F2 =E2) z2 C2 | C4 C2 F2 | F2 F2 F2 E2 | (E2 FG FE)(DC) | %6
w: May thy|Spi- * * * rit rest|* * up-|on us, and|give us grace to|fol- * * * * low *|
!mf! =B,4 G4 | ABAG F4- | F2 E2 D2 GF | E2 E2 F2 A2 | G4 F2 z2 | G4 =ABAG | ^FD (G4 F2) | G4 z4 | %14
w: thee, that|we in all our ways|* may serve thee, in|all our ways may|serve thee,|that we in all our|ways may serve *|thee,|
 z4!f! z2 D2 | DDGF E2 =E2 | F8 | GA B2- BB A2- | A2 G2 F2 F2 | E4 E4 | D4"^dim." z2 G2- | %21
w: and|glo- ri- fy thy Ho- ly|name,|glo- ri- fy * thy ho-|* ly name, thy|Ho- ly|name, and|
 G2 F4 E2 | D4 D2 C2- | C2 (=B,=A,!p! B,4) | C8 |] %25
w: * at the|last de- serve|* thy * *|peace.|
V:3
!p! c4 c4 | _d4 c2 (c2- | c_dcB A2) A2 | G4 A2 c2 | d2 d2 d2 c2 | c6 d2 | d4!mf! z4 | c4 dedc | %8
w: May thy|Spi- rit rest|* * * * * up-|on us, and|give us grace to|fol- low|thee,|that we in all our|
 =BG (c4 B2) | c4 z4 | z4 d4 | efed c4- | c2 B2 (=A2 dc) | B2 B2 c2 e2 | d3 d c2 =A2 | %15
w: ways may serve *|thee,|that|we in all our ways|* may serve * *|thee, that we in|all our ways may|
 (B2 =B2)!f! c2 c2 | ccfe _d2 =d2 | e2 (gf e2) e2 | d2 (e4 d2) | G4 G4 |"^dim." G2 =B2 B2 B2 | %21
w: serve * thee, and|glo- ri- fy thy Ho- ly|name, glo- * * ri-|fy thy *|Ho- ly|name, and at the|
 (cedc =B2 c2- | c2) (=B_A) G4- | G4!p! G4 | G8 |] %25
w: last * * * * *|* de- * serve|* thy|peace.|
V:4
!p! C,4 C,4 | C,4 C,4 | C,6 C,2 | C,4 F,2 (F,E,) | (D,E,)(D,C,) =B,,2 C,2 | A,4 A,4 | G,4 z4 | z8 | %8
w: May thy|Spi- rit|rest up-|on us, and *|give * us * grace to|fol- low|thee,||
!mf! z4 G,4 | A,B,A,G, F,4- | F,2 E,2 (D,2 G,2) | C,4 z4 | z8 | G,4 =A,B,A,G, | ^F,D, (G,4 F,2) | %15
w: that|we in all our ways|* may serve _|thee,||that we in all our|ways may serve *|
 G,4 z4 |!f! z2 F,2 F,F,B,A, | (G,F,E,D, C,2) C,2 | B,,6 =B,,2 | C,4 C,4 |"^dim." G,,4 G,4 | %21
w: thee,|and glo- ri- fy thy|Ho- * * * * ly|name, thy|Ho- ly|name, and|
 G,4 G,4 | G,4 G,4 | G,4!p! G,,4 | C,8 |] %25
w: at the|last de-|serve thy|peace.|

